X: 76
T:Ross's Reel #4
M:4/4
L:1/8
Q:120
C:New England Contradance
S:Tune #4 of Jay Ungar's "Contranova Set"
R:Reel
K:F
a2|:"C"g3 f e2 d2|"F"cdcB A2 G-F|"C"ECEG c2 {cd}c-B|"F"AFAc {fg}f-ef-a|"
C"{ga}g3-f e2 ed|"F"cdcB A2 G-F|!
"C"E-FGA B-cde|[1"F"f2 a2 f2 a2:|[2"F"f2 a2f2 c-B||"F"A-ccc d-ccc|A-cfc
acfc|A-ccc d-ccc|!
A-cfc acfc|"C"A-ccc d-ccc|c2 ec gcbc|c2 ec gcbc|[1a2 g2 "F"f2 c-B:|[2a2
g2 "F"f4|]
